content/fr/images/duke/tractor.svg

<svg height="1000" width="1000.0" xmlns="http://www.w3.org/2000/svg"><path d="m509.8 122.5l-88.8 311.9-117.8 0 0-239.8-50.5 0 0 237.7-168.9 20.5 13.7 156-94.2 0 0 164.6 64.8 0c-0.2 3.6-0.4 7.2-0.4 10.9 0 83.3 68.5 148.6 148.6 148.6 80.2 0 148.6-65.3 148.6-148.6 0-29.1-8.4-56-22.6-78.7l161.9 0c11.7 129.4 122 227.3 249 227.3 134.3 0 250.1-109.5 250.1-250.1 0-111.8-73.3-204-170.9-237l0-323.3-322.6 0z m51.2 61.5l203.1 0 0 249c-3.6-0.2-7.3-0.2-10.9-0.2-30.1 0-59.3 5.5-86.4 15.6l-174.1-14 68.3-250.4z m192.2 398.7c63.6 0 101.5 47.3 101.5 100.1 0 52.8-37.9 100.1-101.5 100.1-63.7 0-101.5-47.3-101.5-100.1 0-52.8 37.8-100.1 101.5-100.1z m-536.9 129.5c44.2 0 76.5 33.5 76.5 72.1 0 38.6-32.3 72.1-76.5 72.1-44.2 0-76.6-33.5-76.6-72.1 0-38.6 32.4-72.1 76.6-72.1z" /></svg>

<?xml version="1.0" encoding="utf-8"?>
<!-- Generator: Adobe Illustrator 24.3.0, SVG Export Plug-In . SVG Version: 6.00 Build 0)  -->
<svg version="1.1" id="Calque_1" xmlns="http://www.w3.org/2000/svg" xmlns:xlink="http://www.w3.org/1999/xlink" x="0px" y="0px"
	 viewBox="0 0 1000 1000" style="enable-background:new 0 0 1000 1000;" xml:space="preserve">
<style type="text/css">
	.st0{fill:#333333;}
</style>
<path class="st0" d="M509.8,122.5L421,434.4H303.2V194.6h-50.5v237.7L83.8,452.8l13.7,156H3.3v164.6h64.8c-0.2,3.6-0.4,7.2-0.4,10.9
	c0,83.3,68.5,148.6,148.6,148.6c80.2,0,148.6-65.3,148.6-148.6c0-29.1-8.4-56-22.6-78.7h161.9c11.7,129.4,122,227.3,249,227.3
	c134.3,0,250.1-109.5,250.1-250.1c0-111.8-73.3-204-170.9-237V122.5L509.8,122.5L509.8,122.5z M561,184h203.1v249
	c-3.6-0.2-7.3-0.2-10.9-0.2c-30.1,0-59.3,5.5-86.4,15.6l-174.1-14L561,184L561,184z M753.2,582.7c63.6,0,101.5,47.3,101.5,100.1
	s-37.9,100.1-101.5,100.1c-63.7,0-101.5-47.3-101.5-100.1S689.5,582.7,753.2,582.7z M216.3,712.2c44.2,0,76.5,33.5,76.5,72.1
	s-32.3,72.1-76.5,72.1s-76.6-33.5-76.6-72.1S172.1,712.2,216.3,712.2z"/>
</svg>
